X: 441
T: Buxiang nijia zunzun danxiang ren
L: 1/8
M: 2/4
K: D
B e e d/ B/ [I:setbarnb 1]| 
A E D B, | 
A3F/ F/ | 
A F/ E/ E D/ B,/ | 
B4 | 
B e e d/ B/ | 
A E D B, | 
A3F/ F/ | 
A F/ E/ E D/ B,/ | 
E4 |]

@@@ Tune index: 9315
